X:15027
T:Scotch Mary
T:Abbey Reel, The
R:reel
H:Also played in Dmix, #790. See also #548, #791.
D:Dervish: At the End of the Day
D:Dessie Wilkinson, Gerry O'Connor & Eithne N\'i Uallachain
Z:id:hn-reel-700
M:C|
K:Amix
cded cded|cAAF G2ed|1 cded cded|cABc A2AB:|2 cdef gfed|cABc ABce||
|:a2ag ~e3d|cdef g2fg|1 eaag ~e3d|cABc ABce:|2 afge (3fga ed|cABc A2AB||
